modules/feathericon/icons/wine-glass.svg

<svg width="8" height="16" xmlns="http://www.w3.org/2000/svg"><path d="M3 9.93C0 9.475 0 7 0 7V0h8v7s0 2.476-3 2.93V15h2.5v1h-7v-1H3V9.93zM1 1v2h6V1H1z" fill="#000" fill-rule="evenodd"/></svg>

<?xml version="1.0" encoding="UTF-8"?>
<svg width="8px" height="16px" viewBox="0 0 8 16" version="1.1" xmlns="http://www.w3.org/2000/svg" xmlns:xlink="http://www.w3.org/1999/xlink">
    <!-- Generator: sketchtool 48.1 (47250) - http://www.bohemiancoding.com/sketch -->
    <title>wine-glass</title>
    <desc>Created with sketchtool.</desc>
    <defs></defs>
    <g id="food" stroke="none" stroke-width="1" fill="none" fill-rule="evenodd">
        <g id="wine-glass" fill="#000000">
            <path d="M3,9.92933631 C0,9.47644544 0,7 0,7 L0,0 L8,0 L8,7 C8,7 8,9.47644544 5,9.92933631 L5,15 L7.5,15 L7.5,16 L0.5,16 L0.5,15 L3,15 L3,9.92933631 Z M1,1 L1,3 L7,3 L7,1 L1,1 Z" id="Shape"></path>
        </g>
    </g>
</svg>
